public/img/logo.svg

<svg enable-background="new 0 0 599.38 523.11" viewBox="0 0 599.38 523.11" xmlns="http://www.w3.org/2000/svg"><g fill="#d41216"><path d="m382.29 142.98-249.31 379.84-132.98-.14 344.3-522.68c7.88 49.06 20.9 97.68 37.99 142.98"/><path d="m413.28 213.54-204.78 309.38 132.94.19 135.03-206.33c-23.78-32.49-44.94-67.01-63.19-103.24z"/><path d="m599.38 447.69-49.25 75.42-133.13-.29 101.6-153.67c24.88 28.2 51.89 54.46 80.78 78.54z"/></g></svg>

<?xml version="1.0" encoding="utf-8"?>
<!-- Generator: Adobe Illustrator 25.0.0, SVG Export Plug-In . SVG Version: 6.00 Build 0)  -->
<svg version="1.1" xmlns="http://www.w3.org/2000/svg" xmlns:xlink="http://www.w3.org/1999/xlink" x="0px" y="0px"
	 viewBox="0 0 599.38 523.11" style="enable-background:new 0 0 599.38 523.11;" xml:space="preserve">
<style type="text/css">
	.st0{fill:#E30613;stroke:#009640;stroke-width:0;stroke-linecap:round;stroke-linejoin:round;}
	.st1{fill:#D41216;}
	.st2{fill:#D41216;stroke:#009640;stroke-width:0;stroke-linecap:round;stroke-linejoin:round;}
	.st3{fill:none;stroke:#009640;stroke-width:0;stroke-linecap:round;stroke-linejoin:round;}
	.st4{display:none;}
	.st5{display:inline;fill:#E73D26;}
	.st6{display:inline;fill:none;}
</style>
<g id="Ebene_2">
	<g>
		<path class="st0" d="M382.29,142.98"/>
		<path class="st1" d="M382.29,142.98L132.98,522.82L0,522.68L344.3,0l0,0C352.18,49.06,365.2,97.68,382.29,142.98"/>
		<path class="st2" d="M413.28,213.54L208.5,522.92l132.94,0.19l135.03-206.33l0,0C452.69,284.29,431.53,249.77,413.28,213.54
			L413.28,213.54"/>
		<path class="st3" d="M599.38,447.69"/>
		<path class="st3" d="M518.6,369.16"/>
		<path class="st1" d="M599.38,447.69l-49.25,75.42L417,522.82l101.6-153.67l0,0C543.48,397.35,570.49,423.61,599.38,447.69
			L599.38,447.69z"/>
	</g>
</g>
<g id="Ebene_1" class="st4">
	<path class="st5" d="M-45.42,426.29c0.34,0.34,97.62,1.14,107.04,0.94c0.94-0.07,1.75-0.74,2.29-2.08
		c0.47-1.14,1.08-2.02,1.41-2.02s0.61-0.34,0.61-0.67c0-0.81,2.76-4.91,3.56-5.24c0.27-0.13,0.47-0.61,0.47-1.08
		c0-0.74,0.61-1.61,3.29-4.84c0.34-0.47,0.47-1.01,0.27-1.21c-0.27-0.2-0.07-0.4,0.34-0.4c0.47,0,0.81-0.47,0.81-1.01
		c0-0.47,0.47-1.21,1.08-1.55c0.61-0.34,1.08-0.87,1.08-1.21c0.07-0.54,3.09-5.58,3.9-6.32c0.2-0.2,0.94-1.41,1.61-2.69
		c0.74-1.28,1.48-2.49,1.68-2.69c0.61-0.54,3.43-4.64,3.43-4.98c0-0.2,1.95-3.23,4.37-6.72s4.37-6.66,4.37-7.06
		c0-0.34,0.2-0.74,0.54-0.87c0.54-0.27,3.5-4.37,3.5-4.91c0-0.2,0.34-0.74,0.74-1.21c0.34-0.47,2.22-3.23,4.17-6.19
		c1.88-2.96,3.56-5.51,3.83-5.71c0.2-0.2,0.74-1.14,1.28-2.15c0.54-1.01,1.48-2.49,2.22-3.16c0.67-0.74,1.21-1.55,1.21-1.68
		c0-0.61,12.98-20.17,13.65-20.64c0.34-0.2,0.47-0.61,0.34-0.81c-0.07-0.27,0.27-1.01,0.87-1.68c0.61-0.67,1.61-2.22,2.35-3.36
		c0.67-1.21,1.48-2.15,1.82-2.15c0.27,0,0.4-0.27,0.13-0.61c-0.2-0.34,0.07-1.01,0.54-1.55c1.48-1.48,5.18-7.13,5.18-7.87
		c0-0.4,0.34-0.74,0.67-0.74c0.4,0,0.67-0.47,0.67-1.01c0-0.54,0.34-1.01,0.67-1.01c0.4,0,0.67-0.4,0.67-0.94
		c0-0.54,0.27-1.08,0.54-1.21c0.27-0.13,1.28-1.41,2.15-2.89c0.87-1.48,1.88-3.03,2.15-3.36c1.01-1.21,9.28-13.92,9.28-14.19
		c0-0.34,4.24-6.45,5.18-7.46c0.4-0.47,1.01-1.48,1.21-2.22c0.2-0.74,0.67-1.34,1.01-1.34c0.27,0,0.67-0.54,0.94-1.21
		c0.4-1.14,1.82-3.56,2.49-4.17c0.2-0.2,2.15-3.16,4.37-6.66c2.15-3.43,4.5-6.86,5.11-7.53c0.67-0.74,1.08-1.28,0.87-1.28
		c-0.2,0,0.74-1.48,2.02-3.36c1.28-1.82,2.35-3.63,2.35-4.03c0-0.34,0.2-0.67,0.54-0.67c0.27,0,1.21-1.34,2.15-3.03
		c0.94-1.68,1.88-3.03,2.15-3.03c0.34,0,0.54-0.4,0.54-0.87c0-0.54,0.61-1.48,1.34-2.15c0.74-0.67,1.34-1.61,1.34-2.15
		c0-0.47,0.34-0.87,0.67-0.87c0.4,0,0.67-0.34,0.67-0.67c0-0.74,3.16-5.85,4.5-7.26c0.4-0.4,1.01-1.41,1.21-2.15
		s0.67-1.34,0.94-1.34c0.34,0,0.94-0.87,1.41-2.02c0.47-1.14,1.08-2.02,1.34-2.02c0.27,0,0.87-0.87,1.34-2.02
		c0.47-1.14,1.08-2.02,1.34-2.02c0.27,0,0.87-0.94,1.34-2.02c0.47-1.14,1.14-2.02,1.48-2.02s0.4-0.34,0.2-0.67
		c-0.2-0.4-0.2-0.67,0.13-0.67c0.27,0,1.41-1.55,2.55-3.36c1.08-1.88,2.22-3.36,2.55-3.36c0.27,0,0.4-0.27,0.2-0.61
		c-0.2-0.27,0.2-1.08,0.94-1.75c0.74-0.67,1.34-1.55,1.34-1.95c0-0.4,0.74-1.61,1.68-2.62c0.94-1.01,1.55-1.82,1.41-1.82
		c-0.34,0,8.87-14.19,10.35-15.93c0.34-0.47,0.67-1.14,0.67-1.55c0-0.34,0.34-0.67,0.67-0.67c0.4,0,0.67-0.47,0.67-1.01
		s0.34-1.01,0.67-1.01c0.4,0,0.67-0.34,0.67-0.67c0-0.4,1.08-2.22,2.35-4.03s2.35-3.5,2.35-3.7s0.61-1.01,1.34-1.82
		c0.74-0.81,1.34-1.88,1.34-2.35s0.34-0.87,0.74-0.87c0.34,0,0.54-0.27,0.34-0.54c-0.2-0.34,0.27-0.94,0.94-1.48
		c0.67-0.54,1.14-1.14,1.01-1.34c-0.2-0.27,0.27-1.01,1.01-1.68c0.74-0.67,1.34-1.48,1.34-1.75c0-0.27,2.35-4.1,5.24-8.47
		c2.96-4.37,8.27-12.51,11.9-18.02c3.63-5.58,6.93-10.29,7.33-10.56c0.4-0.27,0.47-0.54,0.13-0.54c-0.34,0-0.13-0.54,0.4-1.21
		c1.01-1.21,1.08-1.75,0.2-3.83c-2.89-6.93-5.04-12.77-5.04-13.51c0-0.54-0.27-0.94-0.67-0.94c-0.34,0-0.61-0.2-0.54-0.54
		c0.2-0.87-1.75-6.52-2.42-6.99c-0.4-0.27-0.47-0.67-0.2-0.94s0.2-0.81-0.13-1.21c-0.47-0.67-3.97-10.62-4.37-12.71
		c-0.13-0.47-0.4-1.34-0.61-2.02c-0.27-0.61-0.67-1.68-0.94-2.35c-0.2-0.61-0.47-1.61-0.61-2.15c-0.27-1.34-1.61-5.98-2.42-8.14
		c-0.34-0.94-0.67-2.35-0.74-3.16c-0.07-0.81-0.27-1.48-0.47-1.48c-0.27,0-0.47-0.4-0.54-0.87c0-0.4-0.2-1.41-0.4-2.15
		c-0.2-0.74-1.01-3.9-1.68-7.06c-0.74-3.16-1.34-5.78-1.41-5.92c-0.13-0.07-0.2-0.34-0.27-0.67c-0.34-1.34-1.28-5.92-1.41-6.52
		c-0.07-0.4-0.2-0.81-0.27-1.01c-0.2-0.4-0.54-2.22-0.94-5.38c-0.2-1.28-0.54-2.82-0.74-3.43c-0.27-0.61-0.4-1.34-0.34-1.68
		c0.07-0.34,0-0.74-0.07-0.94c-0.27-0.67-0.67-3.09-0.94-5.38c-0.13-1.28-0.34-2.35-0.4-2.35c-0.13,0-0.61-3.36-0.74-5.92
		c-0.07-1.01-0.4-2.02-0.74-2.22s-0.27-0.81,0.13-1.28c1.48-1.75-0.54-1.61-2.08,0.2l0,0c-0.87,1.01-2.22,2.96-2.96,4.37
		c-0.74,1.48-1.95,3.29-2.69,4.1c-0.74,0.81-1.95,2.62-2.69,4.03c-0.74,1.34-1.82,3.03-2.42,3.63c-0.54,0.61-1.61,2.22-2.35,3.5
		c-1.48,2.69-1.68,2.96-3.97,5.78c-0.94,1.21-1.68,2.35-1.68,2.55c0,0.47-6.66,10.56-7.33,11.16c-0.2,0.2-1.01,1.41-1.68,2.69
		c-0.74,1.28-1.48,2.49-1.68,2.69c-0.47,0.4-8.27,12.03-8.81,13.11 M294.17,171.07c-0.74,1.14-1.82,2.76-2.35,3.56
		c-0.54,0.81-1.68,2.55-2.49,3.83c-1.88,2.82-2.22,3.36-5.58,8.2c-1.48,2.15-2.69,4.03-2.69,4.24s-0.34,0.67-0.74,1.14
		c-0.34,0.47-4.24,6.25-8.67,12.91c-4.37,6.66-8.27,12.44-8.67,12.91c-0.4,0.47-0.74,0.94-0.74,1.14c0,0.61-4.3,6.79-4.84,6.99
		c-0.27,0.13-0.54,0.67-0.54,1.21s-0.34,0.94-0.74,0.94c-0.34,0-0.54,0.27-0.34,0.61c0.27,0.34,0.2,0.74-0.07,0.87
		c-0.81,0.34-4.91,6.39-4.91,7.19c0,0.34-0.54,1.01-1.14,1.34c-0.67,0.4-0.94,0.74-0.67,0.74s-0.07,0.67-0.87,1.48
		c-0.74,0.81-1.34,1.88-1.34,2.35s-0.2,0.87-0.47,0.87c-0.34,0-1.41,1.55-2.55,3.43c-1.08,1.88-2.29,3.77-2.69,4.24
		c-1.34,1.61-3.7,5.04-3.7,5.45c0,0.27-0.4,0.87-0.81,1.34c-1.95,2.15-2.49,2.89-2.22,3.16c0.13,0.13-0.47,1.14-1.34,2.15
		c-0.94,1.08-1.68,2.15-1.68,2.42s-0.61,1.14-1.34,2.02s-1.34,1.95-1.34,2.49s-0.27,0.81-0.61,0.61c-0.34-0.2-0.81,0.34-1.01,1.28
		c-0.27,0.94-0.74,1.68-1.08,1.68c-0.4,0-0.67,0.34-0.67,0.67c0,0.81-2.76,4.91-3.5,5.24c-0.34,0.13-0.54,0.54-0.54,0.81
		c0,0.81-4.17,6.99-4.84,7.26c-0.27,0.13-0.54,0.54-0.54,0.94c0,0.74-4.1,6.79-4.84,7.13c-0.34,0.13-0.54,0.54-0.54,0.87
		c0,0.94-4.91,8-5.58,8c-0.27,0-0.4,0.27-0.13,0.61c0.2,0.34-0.07,1.01-0.47,1.55c-0.47,0.47-2.55,3.43-4.57,6.59
		c-2.02,3.16-3.83,5.85-4.03,6.05c-0.4,0.4-2.89,4.03-3.36,5.04c-1.01,1.95-31.26,47.13-31.87,47.53c-0.4,0.27-0.47,0.54-0.13,0.54
		c0.34,0,0.07,0.67-0.67,1.48c-1.61,1.82-4.77,6.72-4.84,7.46c0,0.34-0.74,1.14-1.55,1.88c-0.81,0.67-1.21,1.28-0.94,1.28
		c0.34,0-0.13,0.74-1.01,1.68s-1.28,1.68-0.94,1.68s0.27,0.27-0.07,0.54c-0.94,0.67-3.83,4.77-4.98,6.99
		c-0.54,1.08-1.21,1.88-1.55,1.88c-0.27,0-0.54,0.27-0.54,0.67c0,0.34-1.01,2.08-2.22,3.83c-1.28,1.82-2.49,3.77-2.69,4.37
		c-0.27,0.67-0.74,1.21-1.14,1.21c-0.34,0-0.67,0.47-0.67,1.01c0,0.54-0.27,1.01-0.67,1.01c-0.34,0-0.67,0.27-0.67,0.61
		c0,0.4-2.29,4.03-5.11,8.14c-2.76,4.17-4.91,7.66-4.77,7.87c0.34,0.27,33.68,0.67,83.44,0.87c22.79,0.13,24.14,0.07,25.21-1.14
		c1.21-1.48,2.55-3.43,3.23-4.91c0.27-0.54,1.01-1.61,1.68-2.29c0.61-0.67,1.01-1.55,0.81-1.88c-0.2-0.27-0.07-0.54,0.34-0.54
		s1.21-1.01,1.82-2.22c0.61-1.14,1.34-2.29,1.61-2.49c0.2-0.2,1.48-2.08,2.76-4.24c1.21-2.08,2.49-3.83,2.76-3.83
		c0.34,0,0.54-0.47,0.54-1.01c0-0.54,0.34-1.01,0.74-1.01c0.34,0,0.54-0.27,0.34-0.61c-0.27-0.34-0.2-0.74,0.07-0.87
		c0.81-0.34,3.56-4.44,3.56-5.24c0-0.34,0.34-0.67,0.67-0.67c0.4,0,0.67-0.47,0.67-1.01c0-0.54,0.27-1.01,0.54-1.01
		c0.34,0,0.94-0.67,1.41-1.55c0.4-0.81,1.34-2.42,2.08-3.5c0.74-1.14,1.68-2.69,2.08-3.56c0.47-0.81,1.08-1.48,1.41-1.48
		c0.27,0,0.54-0.4,0.54-0.87c0-0.47,0.54-1.48,1.21-2.22c0.61-0.67,1.55-2.08,2.08-3.09c0.54-1.01,1.61-2.55,2.35-3.36
		c0.81-0.81,1.41-1.68,1.34-1.88c-0.07-0.47,6.05-9.68,6.66-9.95c0.27-0.13,0.47-0.54,0.47-0.87c0-0.54,5.85-9.88,6.72-10.69
		c0.2-0.2,1.41-2.02,2.69-4.03c1.28-2.02,2.62-3.9,3.03-4.17c0.34-0.27,0.4-0.54,0.13-0.54c-0.34,0-0.13-0.47,0.34-1.01
		c2.08-2.29,2.42-2.89,2.08-3.29c-0.27-0.2-0.07-0.4,0.34-0.4c0.47,0,0.81-0.4,0.81-0.94c0-0.54,0.27-1.08,0.54-1.21
		c0.34-0.13,1.95-2.35,3.56-4.91c1.61-2.62,3.16-4.84,3.43-4.91c0.27-0.13,0.54-0.54,0.54-0.87c0-0.34,1.08-2.15,2.35-3.97
		c1.28-1.82,2.35-3.5,2.35-3.77c0-0.2,0.4-0.74,0.87-1.28c0.4-0.47,2.89-4.17,5.51-8.2c2.55-3.97,4.91-7.4,5.18-7.46
		c0.34-0.13,0.4-0.54,0.13-0.87c-0.2-0.34,0.13-0.81,0.67-1.01c0.61-0.2,1.08-0.74,1.08-1.08c0-0.4,1.08-2.22,2.35-3.97
		c1.28-1.82,2.35-3.43,2.35-3.5c0-0.27,11.16-17.28,11.97-18.29c0.27-0.4,1.14-1.75,1.88-3.03c0.67-1.28,1.68-2.62,2.15-2.89
		c0.4-0.27,0.81-0.87,0.81-1.21c0-0.4,0.74-1.68,1.68-2.89c0.94-1.21,1.68-2.55,1.68-2.96c0-0.47,0.27-0.81,0.54-0.81
		c0.34,0,0.94-0.74,1.34-1.61c0.61-1.34,0.34-2.02-1.95-5.04c-1.41-1.88-2.35-3.43-2.08-3.43s0.13-0.27-0.27-0.54
		c-0.87-0.54-6.99-9.48-6.99-10.22c0-0.27-0.61-1.01-1.34-1.68c-0.74-0.67-1.34-1.61-1.34-2.15c0-0.47-0.27-0.87-0.67-0.87
		c-0.34,0-0.67-0.4-0.67-0.94c0-0.54-0.27-1.08-0.54-1.21c-0.54-0.2-6.19-9.01-6.19-9.61c0-0.2-0.61-1.01-1.34-1.82
		c-0.74-0.81-1.34-1.88-1.34-2.35s-0.27-0.87-0.67-0.87c-0.34,0-0.67-0.27-0.67-0.61c0-0.4-0.87-2.02-2.02-3.63
		c-1.08-1.68-2.02-3.36-2.02-3.77c0-0.4-0.27-0.74-0.61-0.74s-0.74-0.54-0.94-1.21c-0.4-1.14-2.49-4.84-3.16-5.51
		c-0.2-0.2-1.08-1.68-1.95-3.36c-0.94-1.68-1.82-3.16-2.02-3.36c-0.27-0.2-0.81-1.08-1.21-2.02c-0.47-0.94-2.22-4.1-3.9-7.06
		c-1.75-2.96-3.29-5.92-3.5-6.59c-0.2-0.61-0.61-1.14-0.87-1.14c-0.54,0-2.29-3.97-2.08-4.91
		C296.66,168.25,295.38,169.19,294.17,171.07L294.17,171.07z M379.36,300.09c-0.81,1.08-1.48,2.22-1.41,2.42
		c0,0.27-0.2,0.67-0.54,0.87c-0.94,0.67-8.94,12.71-8.94,13.51c0,0.34-0.2,0.67-0.47,0.67c-0.34,0-1.61,1.82-2.89,4.03
		s-2.55,4.03-2.82,4.03c-0.34,0-0.54,0.4-0.54,0.94c0,0.54-0.2,1.08-0.47,1.21c-0.74,0.27-4.24,5.71-4.24,6.52
		c0,0.34-0.47,0.74-1.01,1.01c-0.54,0.2-1.01,0.81-1.01,1.34c0,0.54-0.2,1.08-0.54,1.21c-0.27,0.07-1.55,1.88-2.82,3.9
		c-1.28,2.02-2.49,3.83-2.69,4.03s-1.14,1.55-2.02,3.03c-0.87,1.48-2.02,3.09-2.42,3.56c-0.47,0.4-1.08,1.41-1.28,2.15
		c-0.2,0.74-0.74,1.34-1.14,1.34c-0.4,0-0.61,0.2-0.34,0.4c0.2,0.27,0.07,0.81-0.4,1.28c-0.47,0.47-1.21,1.41-1.61,2.08
		c-0.47,0.74-2.22,3.36-3.9,5.85c-1.68,2.55-3.03,4.91-3.03,5.24c0,0.34-0.27,0.61-0.54,0.61c-0.34,0-1.01,0.81-1.55,1.82
		c-0.54,1.08-1.14,2.02-1.34,2.22s-3.36,4.84-6.99,10.42c-3.63,5.51-6.86,10.22-7.13,10.29c-0.34,0.13-0.47,0.54-0.2,0.87
		c0.2,0.34,0,0.61-0.34,0.61c-0.4,0-0.74,0.47-0.74,1.01c0,0.61-0.47,1.21-1.01,1.41c-0.54,0.27-0.81,0.67-0.61,1.01
		c0.2,0.34,0,0.61-0.34,0.61c-0.4,0-0.74,0.34-0.74,0.74s-0.54,1.41-1.14,2.29c-1.41,1.82-1.41,1.82-8.2,12.1
		c-2.96,4.44-5.71,8.47-6.12,8.94c-0.54,0.61,0.4,0.81,4.5,0.87c13.31,0.13,60.58,0.54,80.81,0.61l22.39,0.13l1.61-1.88
		c0.87-1.08,1.55-2.22,1.61-2.49c0-0.27,0.61-1.14,1.34-1.95c0.74-0.81,1.34-1.88,1.34-2.35s0.34-0.87,0.74-0.87
		c0.34,0,0.54-0.27,0.34-0.54c-0.2-0.34,0.27-0.94,0.94-1.48c0.67-0.54,1.14-1.14,1.01-1.34c-0.2-0.27,0.27-1.01,1.01-1.68
		c0.74-0.67,1.34-1.55,1.34-1.88c0-0.4,0.74-1.68,1.68-2.82c0.87-1.21,1.41-2.35,1.21-2.62c-0.27-0.2-0.13-0.4,0.27-0.4
		c0.4,0,2.89-3.5,5.58-7.73c2.69-4.24,5.51-8.34,6.19-9.08s1.08-1.34,0.94-1.34c-0.54,0,7.73-12.3,8.61-12.91
		c0.4-0.27,0.47-0.54,0.2-0.54c-0.34,0,0.07-0.81,0.81-1.75c0.81-1.01,1.41-2.22,1.41-2.76c0-0.81-3.03-4.24-11.56-13.11
		c-1.82-1.82-3.23-3.43-3.23-3.56c0-0.13-0.67-1.01-1.48-1.82c-1.48-1.48-6.19-6.86-11.36-12.91c-1.28-1.41-2.89-3.23-3.63-4.03
		c-1.08-1.14-4.57-5.18-9.41-10.89c-1.01-1.21-4.17-5.04-11.43-14.05C380.23,296.93,381.11,297.67,379.36,300.09L379.36,300.09z"/>
	<line class="st6" x1="108.71" y1="523.11" x2="108.7" y2="523.11"/>
</g>
</svg>
